X: 4
T:English Hunts Up
M:6/8
L:1/8
C:John Whitfield
B:Elizabethan popular Music for the Lute, Jeffrey
K:D
D2E F>GA| d2A F>GA| B2A G2F|E2D D2C|D2E F>GA|d2A F>GA |B2 A G2 F|^G3E2F|
G2A B>AG|d2=c B>AG|A>GF B>AG|A>GF E>DC|D3A3||
